X:1
T: Gramin
C:J. Scott Skinner
R:Reel
Q: 232
K:Bb
M:4/4
L:1/8
|:((3fga)|bf dB ge cB|AB FB DF Bd|=Bc Gc _Bd gf|=eg fe f2 ga|
bf dB ge cB|AB FB DF Bd|=Bc G_B Ag fA|Bb fd B2:|
|:F2|Bc dB ec AF|cd ec gf df|g^f ge cb =eg|f=e fg f2 ((3fga)|
bf dB ge cB|AB FB DF Bd|=Bc G_B Ag fA|Bb fd B2:|
